lib/healthicons/icons/solid/specialties/cardiology.svg

<svg fill="none" height="48" viewBox="0 0 48 48" width="48" xmlns="http://www.w3.org/2000/svg"><path clip-rule="evenodd" d="m9 6c-1.65685 0-3 1.34315-3 3v30c0 1.6569 1.34315 3 3 3h30c1.6569 0 3-1.3431 3-3v-30c0-1.65685-1.3431-3-3-3zm25.2734 13.8684-.7848-.3772c3.2563 3.0696 2.4268 7.6955.3926 11.2137-1.0601 1.8334-2.5066 3.5003-4.0906 4.7184-1.568 1.2058-3.3672 2.0437-5.1232 2.0437-1.7618 0-3.5184-.8434-5.0316-2.0445-1.5274-1.2122-2.9013-2.8612-3.911-4.65-1.0069-1.7839-1.6861-3.7688-1.7497-5.6599-.0372-1.1083.1387-2.2005.5942-3.1891-.0095-.0118-.0197-.0243-.0306-.0374-.0988-.1191-.251-.2858-.454-.4612-.4089-.3536-.9931-.7173-1.7429-.8374-.2667-.0428-.5047-.1915-.66-.4125s-.2146-.4954-.1644-.7608c.3343-1.7674.6362-2.8178.8699-3.4464.1173-.3154.2219-.5367.312-.695.0454-.0797.0889-.1465.1305-.2028.021-.0284.0418-.0545.0626-.0787.0104-.0122.0209-.0238.0314-.0351l.0158-.0166.0079-.0081.004-.004.002-.002c.001-.0009.002-.0019.7032.711.2827-.9592.2829-.9591.2832-.959l.0021.0006.0044.0013.0141.0042.0483.0149c.0409.0127.099.0311.1717.0552.1455.048.3506.1186.5966.2113.4895.1843 1.1527.4604 1.8334.8248.5251.2811 1.0836.6268 1.5865 1.0396l-1.0357-1.5954c-.295-.4544-.1746-1.061.2716-1.3682l3.2089-2.2093c.4434-.3052 1.0487-.2048 1.3698.2272l.4958.6673v-1.0177c0-.5523.4478-1 1-1h3.9926c.5523 0 1 .4477 1 1v1.346c.0194.0173.0393.0352.0596.0538.1854.1697.4064.3946.6422.6815 1.6851-.2971 3.7193-.1286 6.145.7682l.9107.3367-.3097.9202c-.2231.6629-.4686 1.1894-.6921 1.6687l-.006.013c-.2264.4854-.43.9237-.6153 1.4745zm-20.6167-4.2319-.7012-.7129c.2589-.2547.636-.3488.9844-.2461zm2.498 4.2239c.4173-.3404.877-.5827 1.3568-.7486l.0844-.0413c-.0982-.1407-.2235-.2869-.379-.438-.4114-.4001-.9635-.7653-1.5503-1.0794-.5315-.2845-1.0605-.5108-1.4807-.6731-.1381.4102-.3169 1.0428-.5211 1.9983.7299.2721 1.3073.6699 1.7281 1.0337.1002.0866.1924.1721.2765.2544.0919-.0599.1907-.1232.2959-.189.0609-.0381.1241-.0772.1894-.117zm2.1186 1.1065c-.3415.1726-.6608.3516-.9452.5214-.9813.8813-1.4029 2.1042-1.3541 3.5571.0498 1.4831.5949 3.1536 1.4925 4.744.8949 1.5853 2.1058 3.0294 3.4126 4.0666 1.3209 1.0484 2.6479 1.611 3.7883 1.611 1.1462 0 2.5227-.5669 3.904-1.6291 1.3653-1.0499 2.6418-2.5143 3.5784-4.1341 1.9231-3.326 2.189-6.7926-.1644-8.8773-.2836-.2512-.4793-.3666-.7409-.499-.0613-.0311-.1296-.0645-.205-.1014-.1711-.0837-.379-.1854-.6254-.3181-.6133.3179-1.3089.8758-1.9337 1.4617-.3641.3416-.676.6655-.8968.904-.1101.1189-.1968.2157-.255.2819-.0292.033-.0512.0583-.0654.0748l-.0154.018-.0032.0037-.1442.1703-.0756.1235-1.1624 4.1729.407.9406 2.1183-.2459.2306 1.9867-1.909.2216.123 1.8024-1.9954.1361-.1762-2.5824-.9148-2.1143.0452-.1622-.6026.2725-.8436 2.1324-1.8598-.7357.5669-1.433-1.7843-.4204.4587-1.9467 2.5792.6077 2.1851-.9882.607-2.179c-.0508-.0249-.1034-.0503-.1578-.0763-.6573-.3145-1.5556-.7033-2.5343-1.0111-.9863-.3102-2.0075-.5232-2.9232-.52-.4525.0016-.856.0554-1.2091.1633zm7.8917-.3335c.0271-.0354.0551-.0717.084-.1087.3967-.5084.9779-1.1764 1.7044-1.7874 1.2277-1.0325 3.0622-2.0443 5.1515-1.5294.1105-.2563.2208-.4928.3261-.7189l.006-.0128c.0858-.1838.1682-.3609.2476-.5399-3.4072-1.0035-5.5385-.1981-6.8719.9046-1.133.9371-1.7861 2.1701-2.1051 3.0113.4453.2294.8839.4658 1.2515.6676.0713.0392.1401.0772.2059.1136zm-5.8147-3.0558c.0072-.0362.0135-.063.0183-.0817.1807-.3167.1792-.7184-.0298-1.0404l-.9701-1.4943 1.6129-1.1104 1.0665 1.4351c.1921.2585.4969.4087.819.4034.322-.0052.6218-.1653.8053-.4299l.6567-.9469c.1161-.1673.1783-.3662.1783-.5699v-1.2093h1.9926v.8287c0 .3282.1609.6344.4287.8207-.7398.3824-1.4294.9473-2.0082 1.55-.8574.8928-1.6176 2.0174-2.0838 3.1763-1.0113-.1675-1.6176-.1697-2.0793-.1697-.255 0-.3861-.002-.508-.0194.0203-.6176.0655-.9631.1009-1.1423z" fill="#333" fill-rule="evenodd"/></svg>

<svg width="48" height="48" viewBox="0 0 48 48" fill="none" xmlns="http://www.w3.org/2000/svg">
<path fill-rule="evenodd" clip-rule="evenodd" d="M9 6C7.34315 6 6 7.34315 6 9V39C6 40.6569 7.34315 42 9 42H39C40.6569 42 42 40.6569 42 39V9C42 7.34315 40.6569 6 39 6H9ZM34.2734 19.8684L33.4886 19.4912C36.7449 22.5608 35.9154 27.1867 33.8812 30.7049C32.8211 32.5383 31.3746 34.2052 29.7906 35.4233C28.2226 36.6291 26.4234 37.467 24.6674 37.467C22.9056 37.467 21.149 36.6236 19.6358 35.4225C18.1084 34.2103 16.7345 32.5613 15.7248 30.7725C14.7179 28.9886 14.0387 27.0037 13.9751 25.1126C13.9379 24.0043 14.1138 22.9121 14.5693 21.9235C14.5598 21.9117 14.5496 21.8992 14.5387 21.8861C14.4399 21.767 14.2877 21.6003 14.0847 21.4249C13.6758 21.0713 13.0916 20.7076 12.3418 20.5875C12.0751 20.5447 11.8371 20.396 11.6818 20.175C11.5265 19.954 11.4672 19.6796 11.5174 19.4142C11.8517 17.6468 12.1536 16.5964 12.3873 15.9678C12.5046 15.6524 12.6092 15.4311 12.6993 15.2728C12.7447 15.1931 12.7882 15.1263 12.8298 15.07C12.8508 15.0416 12.8716 15.0155 12.8924 14.9913C12.9028 14.9791 12.9133 14.9675 12.9238 14.9562L12.9396 14.9396L12.9475 14.9315L12.9515 14.9275L12.9535 14.9255C12.9545 14.9246 12.9555 14.9236 13.6567 15.6365C13.9394 14.6773 13.9396 14.6774 13.9399 14.6775L13.942 14.6781L13.9464 14.6794L13.9605 14.6836L14.0088 14.6985C14.0497 14.7112 14.1078 14.7296 14.1805 14.7537C14.326 14.8017 14.5311 14.8723 14.7771 14.965C15.2666 15.1493 15.9298 15.4254 16.6105 15.7898C17.1356 16.0709 17.6941 16.4166 18.197 16.8294L17.1613 15.234C16.8663 14.7796 16.9867 14.173 17.4329 13.8658L20.6418 11.6565C21.0852 11.3513 21.6905 11.4517 22.0116 11.8837L22.5074 12.551V11.5333C22.5074 10.981 22.9552 10.5333 23.5074 10.5333H27.5C28.0523 10.5333 28.5 10.981 28.5 11.5333V12.8793C28.5194 12.8966 28.5393 12.9145 28.5596 12.9331C28.745 13.1028 28.966 13.3277 29.2018 13.6146C30.8869 13.3175 32.9211 13.486 35.3468 14.3828L36.2575 14.7195L35.9478 15.6397C35.7247 16.3026 35.4792 16.8291 35.2557 17.3084L35.2497 17.3214C35.0233 17.8068 34.8197 18.2451 34.6344 18.7959L34.2734 19.8684ZM13.6567 15.6365L12.9555 14.9236C13.2144 14.6689 13.5915 14.5748 13.9399 14.6775L13.6567 15.6365ZM16.1547 19.8604C16.572 19.52 17.0317 19.2777 17.5115 19.1118L17.5959 19.0705C17.4977 18.9298 17.3724 18.7836 17.2169 18.6325C16.8055 18.2324 16.2534 17.8672 15.6666 17.5531C15.1351 17.2686 14.6061 17.0423 14.1859 16.88C14.0478 17.2902 13.869 17.9228 13.6648 18.8783C14.3947 19.1504 14.9721 19.5482 15.3929 19.912C15.4931 19.9986 15.5853 20.0841 15.6694 20.1664C15.7613 20.1065 15.8601 20.0432 15.9653 19.9774C16.0262 19.9393 16.0894 19.9002 16.1547 19.8604ZM18.2733 20.9669C17.9318 21.1395 17.6125 21.3185 17.3281 21.4883C16.3468 22.3696 15.9252 23.5925 15.974 25.0454C16.0238 26.5285 16.5689 28.199 17.4665 29.7894C18.3614 31.3747 19.5723 32.8188 20.8791 33.856C22.2 34.9044 23.527 35.467 24.6674 35.467C25.8136 35.467 27.1901 34.9001 28.5714 33.8379C29.9367 32.788 31.2132 31.3236 32.1498 29.7038C34.0729 26.3778 34.3388 22.9112 31.9854 20.8265C31.7018 20.5753 31.5061 20.4599 31.2445 20.3275C31.1832 20.2964 31.1149 20.263 31.0395 20.2261C30.8684 20.1424 30.6605 20.0407 30.4141 19.908C29.8008 20.2259 29.1052 20.7838 28.4804 21.3697C28.1163 21.7113 27.8044 22.0352 27.5836 22.2737C27.4735 22.3926 27.3868 22.4894 27.3286 22.5556C27.2994 22.5886 27.2774 22.6139 27.2632 22.6304L27.2478 22.6484L27.2446 22.6521L27.1004 22.8224L27.0248 22.9459L25.8624 27.1188L26.2694 28.0594L28.3877 27.8135L28.6183 29.8002L26.7093 30.0218L26.8323 31.8242L24.8369 31.9603L24.6607 29.3779L23.7459 27.2636L23.7911 27.1014L23.1885 27.3739L22.3449 29.5063L20.4851 28.7706L21.052 27.3376L19.2677 26.9172L19.7264 24.9705L22.3056 25.5782L24.4907 24.59L25.0977 22.411C25.0469 22.3861 24.9943 22.3607 24.9399 22.3347C24.2826 22.0202 23.3843 21.6314 22.4056 21.3236C21.4193 21.0134 20.3981 20.8004 19.4824 20.8036C19.0299 20.8052 18.6264 20.859 18.2733 20.9669ZM26.165 20.6334C26.1921 20.598 26.2201 20.5617 26.249 20.5247C26.6457 20.0163 27.2269 19.3483 27.9534 18.7373C29.1811 17.7048 31.0156 16.693 33.1049 17.2079C33.2154 16.9516 33.3257 16.7151 33.431 16.489L33.437 16.4762C33.5228 16.2924 33.6052 16.1153 33.6846 15.9363C30.2774 14.9328 28.1461 15.7382 26.8127 16.8409C25.6797 17.778 25.0266 19.011 24.7076 19.8522C25.1529 20.0816 25.5915 20.318 25.9591 20.5198C26.0304 20.559 26.0992 20.597 26.165 20.6334ZM20.3503 17.5776C20.3575 17.5414 20.3638 17.5146 20.3686 17.4959C20.5493 17.1792 20.5478 16.7775 20.3388 16.4555L19.3687 14.9612L20.9816 13.8508L22.0481 15.2859C22.2402 15.5444 22.545 15.6946 22.8671 15.6893C23.1891 15.6841 23.4889 15.524 23.6724 15.2594L24.3291 14.3125C24.4452 14.1452 24.5074 13.9463 24.5074 13.7426V12.5333H26.5V13.362C26.5 13.6902 26.6609 13.9964 26.9287 14.1827C26.1889 14.5651 25.4993 15.13 24.9205 15.7327C24.0631 16.6255 23.3029 17.7501 22.8367 18.909C21.8254 18.7415 21.2191 18.7393 20.7574 18.7393C20.5024 18.7393 20.3713 18.7373 20.2494 18.7199C20.2697 18.1023 20.3149 17.7568 20.3503 17.5776Z" fill="#333333"/>
</svg>
